common/src/main/resources/files/expui/fileTypes/jest.svg

<!--
  - The MIT License (MIT)
  -
  - Copyright (c) 2015-2024 Elior "Mallowigi" Boukhobza
  -
  - Permission is hereby granted, free of charge, to any person obtaining a copy
  - of this software and associated documentation files (the "Software"), to deal
  - in the Software without restriction, including without limitation the rights
  - to use, copy, modify, merge, publish, distribute, sublicense, and/or sell
  - copies of the Software, and to permit persons to whom the Software is
  - furnished to do so, subject to the following conditions:
  -
  - The above copyright notice and this permission notice shall be included in all
  - copies or substantial portions of the Software.
  -
  - THE SOFTWARE IS PROVIDED "AS IS", WITHOUT WARRANTY OF ANY KIND, EXPRESS OR
  - IMPLIED, INCLUDING BUT NOT LIMITED TO THE WARRANTIES OF MERCHANTABILITY,
  - FITNESS FOR A PARTICULAR PURPOSE AND NONINFRINGEMENT. IN NO EVENT SHALL THE
  - AUTHORS OR COPYRIGHT HOLDERS BE LIABLE FOR ANY CLAIM, DAMAGES OR OTHER
  - LIABILITY, WHETHER IN AN ACTION OF CONTRACT, TORT OR OTHERWISE, ARISING FROM,
  - OUT OF OR IN CONNECTION WITH THE SOFTWARE OR THE USE OR OTHER DEALINGS IN THE
  - SOFTWARE.
  -->

<svg data-big="true" version="1.1" xmlns="http://www.w3.org/2000/svg" x="0px" y="0px" viewBox="0 0 512 512" width="16px"
     height="16px">
  <path fill="#D52A29" data-iconColor="Jest"
        d="M242.3771973,187.7129517L178.7664642,0h270.246582l-63.8298035,188.2586975c-2.7666931,0.6633148-5.4637146,1.4998779-8.0830383,2.5057831L314.045166,62.1327477L250.8069458,190.00354C248.0740662,189.0613403,245.2614441,188.2865448,242.3771973,187.7129517z M34.5503006,494.9925232c85.0008163,59.7053528,179.2832031-55.823822,307.7098389-70.3771973c73.7493591-4.3694763,123.8783569-49.5187988,95.3154907-119.4093323c-53.1042786,32.7087402-102.7355652-10.1530151-102.3883362-53.1634369h-40.353241c-1.3252869,38.3990021-30.2075806,68.6092072-74.9790649,64.1187897c-35.0441284,52.4248352-75.6598053,81.8801575-121.7457352,96.8512268c-31.1488266-14.3746948-60.4627075-49.3892822-47.1717567-96.1579895c-5.8899345-0.6573792-11.5409737-2.1054382-16.8552513-4.2308044C-8.7602959,392.6226501-14.0536633,455.8467102,34.5503006,494.9925232z M97.8312988,252.0487061c0-30.3845367-33.1189346-49.4779663-59.4710083-34.2857056s-26.3520622,53.3791504,0.0000076,68.5714111C64.7123642,301.5266418,97.8312988,282.4332275,97.8312988,252.0487061z M269.238678,251.6722412c0-30.3845367-33.1189423-49.4779663-59.4710083-34.2857056s-26.352066,53.3791504,0.0000153,68.5713806C236.119751,301.150177,269.238678,282.0567627,269.238678,251.6722412z M440.0026855,251.6722412c0-30.3845367-33.118927-49.4779663-59.4710083-34.2857056s-26.3520508,53.3791504,0,68.5713806C406.8837585,301.150177,440.0026855,282.0567627,440.0026855,251.6722412z"/>
</svg>

<svg xmlns="http://www.w3.org/2000/svg" width="16" height="16" data-big="true" viewBox="0 0 512 512"><path fill="#D52A29" d="M242.377 187.713 178.767 0h270.246l-63.83 188.259a64 64 0 0 0-8.083 2.505L314.045 62.133l-63.238 127.87a64 64 0 0 0-8.43-2.29M34.55 494.993c85.001 59.705 179.284-55.824 307.71-70.378 73.75-4.37 123.878-49.518 95.316-119.409-53.105 32.709-102.736-10.153-102.389-53.163h-40.353c-1.325 38.399-30.208 68.609-74.979 64.118-35.044 52.425-75.66 81.88-121.746 96.852-31.149-14.375-60.462-49.39-47.172-96.158a64.7 64.7 0 0 1-16.855-4.231c-42.842 79.999-48.136 143.223.468 182.369m63.281-242.944c0-30.385-33.119-49.478-59.47-34.286s-26.353 53.38 0 68.571c26.351 15.193 59.47-3.9 59.47-34.285m171.408-.377c0-30.384-33.12-49.478-59.471-34.285s-26.352 53.379 0 68.57c26.352 15.193 59.47-3.9 59.47-34.285m170.764 0c0-30.384-33.12-49.478-59.471-34.285s-26.352 53.379 0 68.57c26.352 15.193 59.47-3.9 59.47-34.285" data-iconColor="Jest"/></svg>
